X:1
T:Away in a Manger
T:James R. Murray
%%score { ( 1 2 ) | ( 3 4 ) }
L:1/8
M:3/4
K:F
V:1 treble nm="Piano" snm="Pno."
V:2 treble 
V:3 bass 
V:4 bass 
V:1
 c2 | c3 B A2 | A2 G2 F2 | F2 E2 D2 | C4 C2 | C3 D C2 | C2 G2 E2 | D2 C2 F2 | A4 c2 | c3 B A2 | %10
w: A-|way in a|man- ger, no|crib for a|bed, The|lit- tle Lord|Je- sus laid|down His sweet|head. The|stars in the|
w: The|cat- tle are|low- ing, the|Ba- by a-|wakes, But|lit- tle Lord|Je- sus no|cry- ing He|makes; I|love Thee, Lord|
w: Be|near me, Lord|Je- sus, I|ask Thee to|stay Close|by me for-|ev- er, and|love me, I|pray; Bless|all the dear|
 A2 G2 F2 | F2 E2 D2 | C4 C2 | B3 A G2 | A2 G2 F2 | G2 D2 E2 | F4 x2 |] %17
w: sky * looked|down where He|lay, The|lit- tle Lord|Je- sus a-|sleep on the|hay.|
w: Je- sus! look|down from the|sky, And|stay by my|cra- dle till|morn- ing is|nigh.|
w: chil- dren in|Thy ten- der|care, And|fit us for|heav- en to|live with Thee|there.|
V:2
 F2 | F3 G F2 | F2 C2 C2 | D2 C2 B,2 | A,4 A,2 | B,3 B, B,2 | B,2 B,2 B,2 | B,2 A,2 C2 | F4 F2 | %9
 F3 G F2 | F2 C2 C2 | D2 C2 B,2 | A,4 C2 | E3 F E2 | F2 C2 C2 | D2 B,2 C2 | C4 x2 |] %17
V:3
 F,2 | F,3 F, F,2 | F,2 F,2 F,2 | B,,2 B,,2 B,,2 | F,,4 F,,2 | C,3 C, C,2 | C,2 C,2 C,2 | %7
 F,2 F,2 F,2 | F,4 F,2 | F,3 F, F,2 | F,2 F,2 F,2 | B,,2 B,,2 B,,2 | F,,4 A,,2 | C,3 C, C,2 | %14
 F,2 F,2 F,2 | B,,2 G,,2 C,2 | F,4 x2 |] %17
V:4
 A,2 | A,3 D C2 | C2 B,2 A,2 | B,2 F,2 F,2 | F,4 F,2 | E,3 E, E,2 | E,2 E,2 G,2 | F,2 F,2 A,2 | %8
 C4 A,2 | A,3 D C2 | C2 B,2 A,2 | B,2 F,2 F,2 | F,4 F,2 | G,3 C C2 | C2 B,2 A,2 | G,2 G,2 B,2 | %16
 A,4 x2 |] %17

